svgs/duotone/circle-n.svg

<svg xmlns="http://www.w3.org/2000/svg" viewBox="0 0 512 512"><!-- Font Awesome Pro 6.0.0-alpha2 by @fontawesome - https://fontawesome.com License - https://fontawesome.com/license (Commercial License) --><defs><style>.fa-secondary{opacity:.4}</style></defs><path d="M256 16C123.451 16 16 123.451 16 256S123.451 496 256 496S496 388.549 496 256S388.549 16 256 16ZM352 360C352 370.5 345.172 379.781 335.156 382.906C332.797 383.641 330.391 384 328 384C320.281 384 312.828 380.266 308.266 373.656L208 228.828V360C208 373.25 197.25 384 184 384S160 373.25 160 360V152C160 141.5 166.828 132.219 176.844 129.094C186.859 126.031 197.781 129.703 203.734 138.344L304 283.172V152C304 138.75 314.75 128 328 128S352 138.75 352 152V360Z" class="fa-secondary"/><path d="M328 128C314.75 128 304 138.75 304 152V283.172L203.734 138.344C197.781 129.703 186.859 126.031 176.844 129.094C166.828 132.219 160 141.5 160 152V360C160 373.25 170.75 384 184 384S208 373.25 208 360V228.828L308.266 373.656C312.828 380.266 320.281 384 328 384C330.391 384 332.797 383.641 335.156 382.906C345.172 379.781 352 370.5 352 360V152C352 138.75 341.25 128 328 128Z" class="fa-primary"/></svg>

<svg xmlns="http://www.w3.org/2000/svg" viewBox="0 0 512 512"><!--! Font Awesome Pro 6.3.0 by @fontawesome - https://fontawesome.com License - https://fontawesome.com/license (Commercial License) Copyright 2023 Fonticons, Inc. --><defs><style>.fa-secondary{opacity:.4}</style></defs><path class="fa-primary" d="M328 128c-13.25 0-24 10.75-24 24v131.2L203.7 138.3c-5.953-8.641-16.88-12.31-26.89-9.25C166.8 132.2 160 141.5 160 152v208C160 373.3 170.8 384 184 384s24-10.75 24-24V228.8l100.3 144.8C312.8 380.3 320.3 384 328 384c2.391 0 4.797-.3594 7.156-1.094C345.2 379.8 352 370.5 352 360v-208C352 138.8 341.3 128 328 128z"/><path class="fa-secondary" d="M256 0C114.6 0 0 114.6 0 256s114.6 256 256 256s256-114.6 256-256S397.4 0 256 0zM352 360c0 10.5-6.828 19.78-16.84 22.91C332.8 383.6 330.4 384 328 384c-7.719 0-15.17-3.734-19.73-10.34L208 228.8V360C208 373.3 197.3 384 184 384S160 373.3 160 360v-208c0-10.5 6.828-19.78 16.84-22.91c10.02-3.062 20.94 .6094 26.89 9.25L304 283.2V152C304 138.8 314.8 128 328 128S352 138.8 352 152V360z"/></svg>
